svgs/thin/circle-video.svg

<svg xmlns="http://www.w3.org/2000/svg" viewBox="0 0 512 512"><!--! Font Awesome Pro 6.3.0 by @fontawesome - https://fontawesome.com License - https://fontawesome.com/license (Commercial License) Copyright 2023 Fonticons, Inc. --><path d="M288 160H160C142.3 160 128 174.3 128 192v128c0 17.67 14.33 32 32 32h128c17.67 0 32-14.33 32-32V192C320 174.3 305.7 160 288 160zM304 320c0 8.822-7.178 16-16 16H160c-8.822 0-16-7.178-16-16V192c0-8.822 7.178-16 16-16h128c8.822 0 16 7.178 16 16V320zM392.9 182.6l-52.44 26.22c-3.969 1.969-5.562 6.781-3.594 10.72c2 4 6.938 5.531 10.72 3.594L400 196.9v118.1l-52.44-26.22c-3.812-1.906-8.719-.375-10.72 3.594c-1.969 3.938-.375 8.75 3.594 10.72l52.44 26.22C395.1 330.5 397.6 331.1 400 331.1c2.938 0 5.812-.7813 8.406-2.375C413.2 325.8 416 320.7 416 315.1V196.9c0-5.594-2.844-10.69-7.594-13.62S397.8 180.1 392.9 182.6zM256 0C114.6 0 0 114.6 0 256s114.6 256 256 256s256-114.6 256-256S397.4 0 256 0zM256 496c-132.3 0-240-107.7-240-240S123.7 16 256 16s240 107.7 240 240S388.3 496 256 496z"/></svg>

<svg xmlns="http://www.w3.org/2000/svg" viewBox="0 0 512 512"><!-- Font Awesome Pro 6.0.0-alpha2 by @fontawesome - https://fontawesome.com License - https://fontawesome.com/license (Commercial License) --><path d="M256 16C123.451 16 16 123.451 16 256S123.451 496 256 496S496 388.549 496 256S388.549 16 256 16ZM256 480C132.486 480 32 379.514 32 256S132.486 32 256 32S480 132.486 480 256S379.514 480 256 480ZM288 160H160C142.326 160 128 174.326 128 192V320C128 337.674 142.326 352 160 352H288C305.674 352 320 337.674 320 320V192C320 174.326 305.674 160 288 160ZM304 320C304 328.822 296.822 336 288 336H160C151.178 336 144 328.822 144 320V192C144 183.178 151.178 176 160 176H288C296.822 176 304 183.178 304 192V320ZM408.406 183.312C403.656 180.375 397.844 180.125 392.875 182.625L340.437 208.844C336.469 210.812 334.875 215.625 336.844 219.562C338.844 223.562 343.781 225.094 347.562 223.156L400 196.938V315.062L347.562 288.844C343.75 286.938 338.844 288.469 336.844 292.438C334.875 296.375 336.469 301.188 340.438 303.156L392.875 329.375C395.125 330.5 397.562 331.062 400 331.062C402.938 331.062 405.812 330.281 408.406 328.687C413.156 325.75 416 320.656 416 315.062V196.938C416 191.344 413.156 186.25 408.406 183.312Z"/></svg>
